X: 10689
T: Down The River
R: jig
M: 6/8
K: Gmajor
dBG GBd|cA=F FAc|Bcd eag|fed cBA|
dBG GBd|cA=F FAc|dBG cAF|1 GBG GBc:|2 GBGG3||
|:GBd gbg|gdc Bcd|GBd bag|fefg3|
Ac=f fef|cAG =FAc|=fed cA=F|G3G3:|

